storage/app/icons/phosphoricons/bold/headset-bold.svg

<svg xmlns="http://www.w3.org/2000/svg" fill="currentColor" viewBox="0 0 256 256"><path d="M204.73 51.85A108.07 108.07 0 0 0 20 128v56a28 28 0 0 0 28 28h16a28 28 0 0 0 28-28v-40a28 28 0 0 0-28-28H44.84A84.05 84.05 0 0 1 128 44h.64a83.7 83.7 0 0 1 82.52 72H192a28 28 0 0 0-28 28v40a28 28 0 0 0 28 28h19.6a20 20 0 0 1-19.6 16h-56a12 12 0 0 0 0 24h56a44.05 44.05 0 0 0 44-44v-80a107.34 107.34 0 0 0-31.27-76.15M64 140a4 4 0 0 1 4 4v40a4 4 0 0 1-4 4H48a4 4 0 0 1-4-4v-44Zm124 44v-40a4 4 0 0 1 4-4h20v48h-20a4 4 0 0 1-4-4"/></svg>

<svg xmlns="http://www.w3.org/2000/svg" viewBox="0 0 256 256" fill="currentColor"><path d="M204.73,51.85A108.07,108.07,0,0,0,20,128v56a28,28,0,0,0,28,28H64a28,28,0,0,0,28-28V144a28,28,0,0,0-28-28H44.84A84.05,84.05,0,0,1,128,44h.64a83.7,83.7,0,0,1,82.52,72H192a28,28,0,0,0-28,28v40a28,28,0,0,0,28,28h19.6A20,20,0,0,1,192,228H136a12,12,0,0,0,0,24h56a44.05,44.05,0,0,0,44-44V128A107.34,107.34,0,0,0,204.73,51.85ZM64,140a4,4,0,0,1,4,4v40a4,4,0,0,1-4,4H48a4,4,0,0,1-4-4V140Zm124,44V144a4,4,0,0,1,4-4h20v48H192A4,4,0,0,1,188,184Z"/></svg>
